icons/checks.svg

<svg width="24" height="24" viewBox="0 0 24 24" fill="none" xmlns="http://www.w3.org/2000/svg">
<path fill-rule="evenodd" clip-rule="evenodd" d="M17.7071 6.29289C18.0976 6.68342 18.0976 7.31658 17.7071 7.70711L13.7071 11.7071C13.3166 12.0976 12.6834 12.0976 12.2929 11.7071C11.9024 11.3166 11.9024 10.6834 12.2929 10.2929L16.2929 6.29289C16.6834 5.90237 17.3166 5.90237 17.7071 6.29289ZM22.2071 7.29289C22.5976 7.68342 22.5976 8.31658 22.2071 8.70711L13.7071 17.2071C13.3166 17.5976 12.6834 17.5976 12.2929 17.2071L7.29289 12.2071C6.90237 11.8166 6.90237 11.1834 7.29289 10.7929C7.68342 10.4024 8.31658 10.4024 8.70711 10.7929L13 15.0858L20.7929 7.29289C21.1834 6.90237 21.8166 6.90237 22.2071 7.29289ZM1.79289 10.7929C2.18342 10.4024 2.81658 10.4024 3.20711 10.7929L8.20711 15.7929C8.59763 16.1834 8.59763 16.8166 8.20711 17.2071C7.81658 17.5976 7.18342 17.5976 6.79289 17.2071L1.79289 12.2071C1.40237 11.8166 1.40237 11.1834 1.79289 10.7929Z" fill="black"/>
</svg>

<svg
  width="24"
  height="24"
  viewBox="0 0 24 24"
  xmlns="http://www.w3.org/2000/svg"
>
  <path
    fill-rule="evenodd"
    clip-rule="evenodd"
    d="M17.707 6.293a1 1 0 0 1 0 1.414l-4 4a1 1 0 0 1-1.414-1.414l4-4a1 1 0 0 1 1.414 0zm4.5 1a1 1 0 0 1 0 1.414l-8.5 8.5a1 1 0 0 1-1.414 0l-5-5a1 1 0 1 1 1.414-1.414L13 15.086l7.793-7.793a1 1 0 0 1 1.414 0zm-20.414 3.5a1 1 0 0 1 1.414 0l5 5a1 1 0 1 1-1.414 1.414l-5-5a1 1 0 0 1 0-1.414z"
  />
</svg>
